X:2519
T:Polska från Småland ("Wimmerbypålskan")
T:Svenska Folkdansar H3 nr 31
O:Småland
B:Traditioner av Svenska Folkdansar Häfte 3, nr 31
R:Polska
Z:Nils L
M:3/4
L:1/16
K:C
zc | c3B/A/ G4 F4 | E2>F2 G4 c4 | B2c2 d2B2 G2B2 | c4 C4 z2 ::
zc | (B2>c2) d4>>c4 | f2>e2 d4>>c4 | B2>c2 d4>>c4 | f2>e2 "^D.C. al fine"d4>>c4 :|
(:musicend:)
(:music:)
